X:1     %Music
T:The Banks of Sacramento
B:Singing Together, Autumn 1960, BBC Publications
F:http://www.folkinfo.org/songs
M:4/4     %Meter
L:1/8     %
K:D
D4 (F2A2) |d6 c2 |B3 c d2 B2 |A6 
w:Ho, boys,_ ho! For Ca-li-for-nia, O! 
d2 | B2 BB B2 A2 |B2 A2 F2
w:There's plen-ty of gold, so I've been told, 
 D3/2E/ |F3 E F3 E |E2 D2  |]
w:On the banks of Sa-cra-men-to. 